X:1
T:Hallelujah
T:Hallelujah
T:Lenard Cohen
C:Leonard Cohen
Z:All Rights Reserved
L:1/8
M:6/4
K:C
V:1 treble 
%%MIDI program 40
V:1
 z8 z2 z E |"C" G2 G G2 G"Am" AA A3 E |"C" G2 GGGG"Am" A2 A A2 A |"F" A2 A A2 A"G" A2 GG F2 | %4
w: I|heard there was a sac- red chord that|Da- vid played and it pleased the Lord. But|you don't real- ly care for mu- sic,|
"C" G G8 z2 E | G2 G G2 G"F" A2 A"G" B2 E |"Am" cc c3 c"F" cc"G" d3 d | d2 d d2 d"E" e2 e2 ed | %8
w: do you? It|goes like this, the fourth, the fifth, the|mi- nor fall, the ma- jor lift. The|baf- fled king com- pos- ing hal- le-|
"Am" d3 c4 z2 E2 G |"F" A3 A3 z3 A2 G |"Am" E3 E3 z3 E2 G |"F" A3 A3 z3 A2 G |"C" E4 FE"G" D4 C2 | %13
w: lu- jah. Ha- le-|lu- jah. Hal- le-|lu- jah. Hal- le-|lu- jah. Hal- le-|lu- * * * *|
"C" C8 z4 |] %14
w: jah.|

